X:1
T:Divinity, CM
T:A Compilation of Genuine Church Music,  1835
T:Divinity, CM
T:Public Domain
C:A Compilation of Genuine Church Music,  1835
Z:Public Domain
%%score ( 1 2 ) ( 3 4 )
L:1/8
M:4/4
K:G
V:1 treble 
V:2 treble 
V:3 bass 
V:4 bass 
V:1
 (B3 A) | [EG]2 (GD) [EG]4 | [FA]4 [GB]2 [FA]2 | G4 [GB]4 | [Gd]4 [EG]4 | [GB]2 [Ec]2 [Fd]4 | %6
 [DB]4 ([Cc][Dd]) [Ee]2 | [Gd]4 [DG]4 | [DB]2 [FA]2 [EG]4 | [Gd]4 [Gc]2 (dc) | [GB]4 [FA]4 | G4 |] %12
V:2
 D4 | x2 E2 x4 | x8 | G4 x4 | x8 | x8 | x8 | x8 | x8 | x6 G2 | x8 | G4 |] %12
V:3
 G,4 | [F,B,]2 [C,B,]2 [C,B,]4 | [D,D]4 [B,,B,]2 [D,D]2 | [G,,D]4 [G,D]4 | [D,B,]4 [C,C]4 | %5
 [G,D]2 (CB,) [D,A,]4 | [G,B,]4 (ED) [G,B,]2 | [G,D]4 [B,D]4 | [G,B,]2 [E,D]2 [D,D]4 | %9
 B,4 [G,E]2 [G,D]2 | [G,D]4 [D,D]4 | [G,,B,]4 |] %12
V:4
 G,4 | x8 | x8 | x8 | x8 | x2 A,2 x4 | x4 G,2 x2 | x8 | x8 | B,4 x4 | x8 | x4 |] %12

